X:1
T:Wake Nicodemus
M:4/4
L:1/16
K:Ab
 c3 B| A4 F3 F E4 C3 E| A4 A3 B c4 e3 e| A4 A3 B A4 F3 G| A12 c3 B|\
 A4 F3 F E4 C3 E| A4 A3 B c4 e3 e| A4 A3 B A4 F3 G| A12 c3 c| B4 B3 B B4 c3 c|\
 A4 A3 A A4 c3 c| B4 B3 B B4 A3 c| e12 c3 B| A4 F3 F E4 C3 E| A4 A3 B c4 e3 e|\
 A4 A3 B A4 F3 G| A12 z2 E2| A4 A4 A2 A4 B2| c4 e4 A4 B3 B| c4 d4 e4 f3 f|\
 B12 e4| cc cc e2 ee AA A2c2 c2| BB BB d2d2 c2 cc e2e2| A4 A3 B A4 F3 G|\
 A12||
